<?xml version="1.0" encoding="UTF-8"?>
<map version="1.10" tiledversion="1.12.2" orientation="orthogonal" renderorder="right-down" width="30" height="20" tilewidth="16" tileheight="16" infinite="0" nextlayerid="2" nextobjectid="1">
 <tileset firstgid="1" source="Tileset_Spring.tsx"/>
 <layer id="1" name="Tile Layer 1" width="30" height="20">
  <data encoding="csv">
0,0,0,0,0,0,0,0,0,0,0,0,0,0,0,0,0,0,0,0,0,0,0,0,0,0,0,0,0,0,
0,0,0,0,0,0,0,0,0,0,0,0,0,0,0,0,0,0,0,0,0,0,0,0,0,0,0,0,0,0,
0,0,0,0,0,0,0,0,0,0,0,0,0,0,0,0,0,0,0,0,0,0,0,0,0,0,0,0,0,0,
0,0,0,0,0,0,0,0,0,0,0,0,0,0,0,0,0,0,0,0,0,0,0,0,0,0,0,0,0,0,
0,0,0,0,0,0,0,0,0,0,0,0,0,0,0,0,0,0,0,0,0,0,0,0,0,0,0,0,0,0,
0,0,0,0,0,0,0,0,9,11,11,11,11,11,11,11,11,11,11,11,11,12,0,0,0,0,0,0,0,0,
0,0,0,0,0,0,0,0,21,34,130,130,130,130,130,130,130,34,34,34,34,36,0,0,0,0,0,0,0,0,
0,0,0,0,0,0,0,0,21,34,130,34,34,34,34,34,130,130,130,34,34,36,0,0,0,0,0,0,0,0,
0,0,0,0,0,0,0,0,21,34,130,34,34,34,34,34,34,34,130,130,34,36,0,0,0,0,0,0,0,0,
0,0,0,0,0,0,0,0,21,34,130,34,34,34,130,130,130,34,34,130,34,36,0,0,0,0,0,0,0,0,
0,0,0,0,0,0,0,0,21,34,130,34,34,34,130,130,130,34,34,130,34,36,0,0,0,0,0,0,0,0,
0,0,0,0,0,0,0,0,21,34,130,130,34,34,34,34,34,34,34,130,34,36,0,0,0,0,0,0,0,0,
0,0,0,0,0,0,0,0,21,34,34,130,130,34,34,34,34,34,130,130,34,36,0,0,0,0,0,0,0,0,
0,0,0,0,0,0,0,0,21,34,34,34,130,130,130,130,130,130,130,34,34,36,0,0,0,0,0,0,0,0,
0,0,0,0,0,0,0,0,21,34,34,34,34,34,34,34,34,34,34,34,34,36,0,0,0,0,0,0,0,0,
0,0,0,0,0,0,0,0,45,46,46,46,46,46,46,46,46,46,46,46,46,48,0,0,0,0,0,0,0,0,
0,0,0,0,0,0,0,0,0,0,0,0,0,0,0,0,0,0,0,0,0,0,0,0,0,0,0,0,0,0,
0,0,0,0,0,0,0,0,0,0,0,0,0,0,0,0,0,0,0,0,0,0,0,0,0,0,0,0,0,0,
0,0,0,0,0,0,0,0,0,0,0,0,0,0,0,0,0,0,0,0,0,0,0,0,0,0,0,0,0,0,
0,0,0,0,0,0,0,0,0,0,0,0,0,0,0,0,0,0,0,0,0,0,0,0,0,0,0,0,0,0
</data>
 </layer>
</map>
